16x16/apps/twupic.svg

<svg height="16" width="16" xmlns="http://www.w3.org/2000/svg"><path d="m8.042 0a1.776 1.82 0 0 0 -.93.243l-5.224 3.09a1.776 1.82 0 0 0 -.888 1.577v6.181a1.776 1.82 0 0 0 .888 1.576l5.224 3.09a1.776 1.82 0 0 0 1.776 0l5.224-3.09a1.776 1.82 0 0 0 .888-1.577v-6.18a1.776 1.82 0 0 0 -.888-1.576l-5.224-3.091a1.776 1.82 0 0 0 -.846-.243z" fill="#4f4f4f"/><path d="m9.6 9.6s.36.97 1.709 1c1.355.03 2.291-1.24 2.291-2.38 0-1.82-1.2-2.82-2.128-2.82-3.61 0-3.34 5.2-6.797 5.2-1.475 0-2.278-1.497-2.275-2.608.004-1.633 1.23-2.647 2.34-2.592 1.167.058 1.66.8 1.66.8" fill="none" stroke="#f4f4f7" stroke-width=".8"/><g fill="#f4f4f7"><path d="m7 7-1-.268-1-.268.732-.732.732-.732.268 1z"/><path d="m-9-9-1-.268-1-.268.732-.732.732-.732.268 1z" transform="scale(-1)"/></g></svg>

<svg xmlns="http://www.w3.org/2000/svg" width="16" height="16" version="1"><path style="fill:#4f4f4f" d="M8.042 0a1.776 1.82 0 0 0-.93.243l-5.224 3.09A1.776 1.82 0 0 0 1 4.91v6.181a1.776 1.82 0 0 0 .888 1.576l5.224 3.09a1.776 1.82 0 0 0 1.776 0l5.224-3.09A1.776 1.82 0 0 0 15 11.09V4.91a1.776 1.82 0 0 0-.888-1.576L8.888.243A1.776 1.82 0 0 0 8.042 0z"/><path style="fill:none;stroke:#f4f4f7;stroke-width:.80000001" d="M9.6 9.6s.36.97 1.709 1c1.355.03 2.291-1.24 2.291-2.38 0-1.82-1.2-2.82-2.128-2.82-3.61 0-3.34 5.2-6.797 5.2C3.2 10.6 2.397 9.103 2.4 7.992 2.404 6.359 3.63 5.345 4.74 5.4c1.167.058 1.66.8 1.66.8"/><path style="fill:#f4f4f7" d="m7 7-1-.268-1-.268.732-.732L6.464 5l.268 1z"/><path style="fill:#f4f4f7" transform="scale(-1)" d="m-9-9-1-.268-1-.268.732-.732.732-.732.268 1z"/></svg>
